X: 15
T: Missa Cuiusvis toni (on D) / Credo
N: Derived from Ock1004.1c-Missa_Cuiusvis_toni-Credo-on_D.krn
C: Johannes Ockeghem
%%abc-version 2.0
%%abcx-abcm2ps-target-version 5.9.1 (29 Sep 2008)
%%abc-creator hum2abc beta
%%abcx-conversion-date 2019/02/17 07:26:13
%%abc-edited-by Jesse Rodin
%%abc-edited-by Jesse Rodin 8-24-2012
%%abcx-initial-encoding-date 2012/08/24/
%%humdrum-veritas 1507446881
%%humdrum-veritas-data 2697715247
%%linebreak <none>
%%barnumbers 0
L: 1/4
M: 3/1
Q: 1/2=120
%%staves [1 2 3 4]
V: 1 clef=treble
V: 2 clef=treble-8
V: 3 clef=treble-8
V: 4 clef=bass
K: F
[V:1] D6E2F4 | 
[V:2] d4B2c2A4 | 
[V:3] z12 | 
[V:4] z12 | 
[V:1] G4F2F2F2F2- | 
[V:2] G4A2B2A2d2- | 
[V:3] G2E2D4D4 | 
[V:4] z12 | 
[V:1] FDD2z2D2D2D2 | 
[V:2] dBB2A2B4B2 | 
[V:3] D4E2F2G4 | 
[V:4] B,,4C,2B,,2G,,4- | 
[V:1] D2D2EF2DC2B,2 | 
[V:2] B4B2A4F2 | 
[V:3] D2G3FD2E2D2 | 
[V:4] G,,4z2D,2A,,2B,,2- | 
[V:1] B,B,B,B,A,2G,B,CD2C/B,/ | 
[V:2] D2G2A2B2AFB2 | 
[V:3] G4z2G2F2G2 | 
[V:4] B,,G,,G,,2F,,2G,,2A,,B,,G,,2 | 
[V:1] A,2z2G,2B,3CD2 | 
[V:2] z2A2B4G3F | 
[V:3] A2F2G4B3A | 
[V:4] D,4G,,4z4 | 
[V:1] EDEF2E/D/FE2D2^C | 
[V:2] B3cd2Bc2AG2 | 
[V:3] G3FD3C/D/F2E2 | 
[V:4] z12 | 
[V:1] D4z4z4 | 
[V:2] A2z2B2Ad2cA2 | 
[V:3] D4z4z4 | 
[V:4] z2D,2D,2F,4F,2 | 
[V:1] z12 | 
[V:2] G2B3AF2_E2G2- | 
[V:3] z12 | 
[V:4] G,2G,2D,2D,2_E,2E,2 | 
[V:1] z12 | 
[V:2] GFD2z2A3GA2 | 
[V:3] z12 | 
[V:4] B,,2z2B,,2C,D,2B,,A,,2 | 
[V:1] z12 | 
[V:2] B2ABcd2c3/B/A/G/A2 | 
[V:3] z12 | 
[V:4] G,,2D,2E,F,G,A,3/G,/^F,/E,/F,3/E,/ | 
[V:1] B,3CD2_E4D2 | 
[V:2] G4z4z4 | 
[V:3] z2G2G2G4G2 | 
[V:4] G,4z4z4 | 
[V:1] C4B,2B,2D2D2 | 
[V:2] z12 | 
[V:3] A4B3GF2F2 | 
[V:4] z12 | 
[V:1] E2E2F2F2G3F/E/ | 
[V:2] z12 | 
[V:3] G2G2D2D2E2F2 | 
[V:4] z12 | 
[V:1] D2z2z4z4 | 
[V:2] z4z2B4A2 | 
[V:3] G4z4z4 | 
[V:4] z2_E,4D,2E,2C,2 | 
[V:1] z12 | 
[V:2] B2G2F4z4 | 
[V:3] z4z2D2G2F2 | 
[V:4] B,,4B,,4C,2A,,2 | 
[V:1] z4z2G4G2 | 
[V:2] z4z2d4d2 | 
[V:3] G2A2B4B4 | 
[V:4] B,,2C,2G,,4G,,4 | 
[V:1] G4F4G3E | 
[V:2] d4d4d3B | 
[V:3] B2B3AA2B3G | 
[V:4] G,,4D,4G,,4 | 
[V:1] D2E3DD2C4 | 
[V:2] A2B2A2G2A4 | 
[V:3] F2G2F2D2E4 | 
[V:4] z2G,,2A,,2B,,2C,4 | 
[V:1] B,4z4z4 | 
[V:2] G4z4z4 | 
[V:3] D2G4G2G3F | 
[V:4] G,,4G,,2G,,2B,,3C, | 
[V:1] z12 | 
[V:2] z12 | 
[V:3] D2C2F4E4 | 
[V:4] B,,2A,,2D,2D,4^C,2 | 
[V:1] z2F4F2F2F2 | 
[V:2] d4d4d2d2 | 
[V:3] D4z4z4 | 
[V:4] D,4z4z4 | 
[V:1] G4F2D2E4 | 
[V:2] edcBA2d4^c2 | 
[V:3] z12 | 
[V:4] z12 | 
[V:1] F4D2D2E2E2 | 
[V:2] d3BA2B2G2A2 | 
[V:3] z2F4F2E2E2 | 
[V:4] z2D,4B,,2C,2C,2 | 
[V:1] D3B,C2B,4A,2 | 
[V:2] B3GA2F2F4 | 
[V:3] FF2DE2D2C4 | 
[V:4] B,,4A,,2B,,2F,,4 | 
[V:1] B,4z4z4 | 
[V:2] F4F4F2B2- | 
[V:3] B,4z4z4 | 
[V:4] z2B,,4D,4D,2 | 
[V:1] z12 | 
[V:2] BAF2G2A2B4 | 
[V:3] z12 | 
[V:4] D,4C,2C,2B,,4 | 
[V:1] z12 | 
[V:2] F2F2F2B4G2 | 
[V:3] F2F2F2B4G2 | 
[V:4] B,,4B,,2B,,2_E,4 | 
[V:1] z12 | 
[V:2] F4G2E4C2 | 
[V:3] F4G2E4C2 | 
[V:4] D,2B,,4C,2A,,4 | 
[V:1] D4F2G4A2 | 
[V:2] B,2B2c2d3Bc2 | 
[V:3] D2G2A2B4A2 | 
[V:4] G,,3B,,A,,2G,,4F,,2 | 
[V:1] B4B3AGFF2- | 
[V:2] B2_e4d3cBA/G/ | 
[V:3] G4_E2G4D2- | 
[V:4] G,,4z2G,,3A,,B,,2- | 
[V:1] FD_E2D2B,2C3B, | 
[V:2] F2B3AG2A4 | 
[V:3] D2G2F2G4F2 | 
[V:4] B,,2G,,2D,2_E,3C,D,2 | 
[V:1] B,2G,2C2D2B,4 ||  
[V:2] G8G4 ||  
[V:3] D2E4D2D4 ||  
[V:4] B,,2C,4B,,2G,,4 ||  
[V:1]  [K:F] [K:clef=treble][M:2/1]z8 | 
[V:2]  [K:F] [K:clef=treble-8][M:2/1]d6c2 | 
[V:3]  [K:F] [K:clef=treble-8][M:2/1]z8 | 
[V:4]  [K:F] [K:clef=bass][M:2/1]D,6E,2 | 
[V:1] z8 | 
[V:2] c4A4 | 
[V:3] z8 | 
[V:4] F,4F,4 | 
[V:1] z8 | 
[V:2] B4d4- | 
[V:3] z8 | 
[V:4] G,4G,4 | 
[V:1] z8 | 
[V:2] d2cBA4 | 
[V:3] z8 | 
[V:4] D,4D,4 | 
[V:1] z8 | 
[V:2] z4d3B | 
[V:3] z8 | 
[V:4] G,4F,2G,2- | 
[V:1] z8 | 
[V:2] c2d3cA2 | 
[V:3] z8 | 
[V:4] G,F,D,2_E,3D, | 
[V:1] z8 | 
[V:2] B3AF2F2 | 
[V:3] z8 | 
[V:4] B,,4z2B,,2- | 
[V:1] z8 | 
[V:2] G2A4D2- | 
[V:3] z8 | 
[V:4] B,,2C,2D,4 | 
[V:1] z8 | 
[V:2] D2D2E2D2 | 
[V:3] z8 | 
[V:4] G,,2B,,3G,,B,,2 | 
[V:1] z8 | 
[V:2] F4E4 | 
[V:3] z8 | 
[V:4] A,,2D,4^C,2 | 
[V:1] z8 | 
[V:2] D4z4 | 
[V:3] z8 | 
[V:4] D,4z4 | 
[V:1] G8 | 
[V:2] d8 | 
[V:3] G8 | 
[V:4] G,,8 | 
[V:1] F4F4 | 
[V:2] d4d4 | 
[V:3] A4A4 | 
[V:4] D,4D,4 | 
[V:1] G4A4 | 
[V:2] B4A4 | 
[V:3] G4F4 | 
[V:4] E,4F,4 | 
[V:1] G6E2 | 
[V:2] d8- | 
[V:3] B8 | 
[V:4] G,8 | 
[V:1] F8 | 
[V:2] d8 | 
[V:3] A8 | 
[V:4] D,8 | 
[V:1] F4F4 | 
[V:2] A4A4 | 
[V:3] z8 | 
[V:4] z8 | 
[V:1] G4G3F | 
[V:2] B4B4 | 
[V:3] z8 | 
[V:4] z8 | 
[V:1] E2D2E4 | 
[V:2] c2B2c4 | 
[V:3] z8 | 
[V:4] z8 | 
[V:1] D4C4 | 
[V:2] d2cBA4 | 
[V:3] z8 | 
[V:4] z8 | 
[V:1] F4G2A2- | 
[V:2] d4e2d2- | 
[V:3] z8 | 
[V:4] z8 | 
[V:1] A2G4^F2 | 
[V:2] d2B2A4 | 
[V:3] z8 | 
[V:4] z8 | 
[V:1] G4z4 | 
[V:2] G4z4 | 
[V:3] z4G4 | 
[V:4] z4G,4- | 
[V:1] z8 | 
[V:2] z8 | 
[V:3] B4B4 | 
[V:4] G,2E,2D,4 | 
[V:1] z8 | 
[V:2] z8 | 
[V:3] A4A4 | 
[V:4] F,4F,4 | 
[V:1] z8 | 
[V:2] z8 | 
[V:3] G4F2A2- | 
[V:4] E,4D,4 | 
[V:1] z8 | 
[V:2] z8 | 
[V:3] AGG2F2D2 | 
[V:4] C,2E,3D,D,2 | 
[V:1] z8 | 
[V:2] z8 | 
[V:3] E4D4 | 
[V:4] C,2A,,2B,,4 | 
[V:1] z4D4- | 
[V:2] z4A4- | 
[V:3] z4F4- | 
[V:4] A,,4D,4- | 
[V:1] D4D4 | 
[V:2] A4B4 | 
[V:3] F4F4 | 
[V:4] D,4B,,4 | 
[V:1] C4E4 | 
[V:2] c4A4 | 
[V:3] F4E4 | 
[V:4] A,,4C,4 | 
[V:1] D4D4 | 
[V:2] B4B4 | 
[V:3] F4G4 | 
[V:4] B,,4G,,4 | 
[V:1] C8 | 
[V:2] A8 | 
[V:3] E4F4- | 
[V:4] A,,8 | 
[V:1] z4D4 | 
[V:2] z4B4 | 
[V:3] F4G4- | 
[V:4] D,4G,,4 | 
[V:1] D4F4 | 
[V:2] G4F2B2- | 
[V:3] G2F2D4 | 
[V:4] z4D,4 | 
[V:1] G2A4GA | 
[V:2] B2c2d4 | 
[V:3] z8 | 
[V:4] B,,2A,,2D,4 | 
[V:1] B8 | 
[V:2] z2d4d2 | 
[V:3] G8 | 
[V:4] z8 | 
[V:1] B4B2B2- | 
[V:2] d2d2_e2d2- | 
[V:3] z4z2G2- | 
[V:4] G,,8 | 
[V:1] B2A2G4 | 
[V:2] d2c2B3G | 
[V:3] GDF2G2E2 | 
[V:4] z8 | 
[V:1] F4z4 | 
[V:2] A3FG2F2 | 
[V:3] D4E2D2 | 
[V:4] z2D,3C,D,2- | 
[V:1] F4G4 | 
[V:2] A4z2D2- | 
[V:3] z2C2D3E | 
[V:4] D,B,,A,,2G,,4 | 
[V:1] A3GA2B2 | 
[V:2] D2E2F2G2 | 
[V:3] F2G2D4 | 
[V:4] z4z2G,,2 | 
[V:1] A2B4A2- | 
[V:2] D4d4 | 
[V:3] z8 | 
[V:4] F,,2G,,B,,2C,D,2 | 
[V:1] A2F2G3E | 
[V:2] c2A2B4 | 
[V:3] z8 | 
[V:4] A,,2D,2z2G,,2 | 
[V:1] F2A4GF | 
[V:2] A4c4 | 
[V:3] z8 | 
[V:4] D,4z4 | 
[V:1] G2E2D2F2 | 
[V:2] B2c2d2d2- | 
[V:3] G2A2B4 | 
[V:4] z8 | 
[V:1] E4D4 | 
[V:2] d2c2B3A | 
[V:3] c4G2F2 | 
[V:4] z4G,,2D,2- | 
[V:1] z4A4 | 
[V:2] B3AF4 | 
[V:3] D4z4 | 
[V:4] D,2B,,2A,,2D,2- | 
[V:1] A4B4- | 
[V:2] z2F2G2B2- | 
[V:3] z8 | 
[V:4] D,B,,A,,2G,,4- | 
[V:1] B2AGF4 | 
[V:2] B2c2d4 | 
[V:3] G4D4 | 
[V:4] G,,4z4 | 
[V:1] F2A2B2c2- | 
[V:2] A4z2A2- | 
[V:3] z2D4E2 | 
[V:4] z8 | 
[V:1] c2B2G2A2- | 
[V:2] A2G2B2c2 | 
[V:3] F2G4F2 | 
[V:4] z8 | 
[V:1] AGG4^F2 | 
[V:2] d3BA4 | 
[V:3] D4z4 | 
[V:4] z4z2D,2 | 
[V:1] G4z4 | 
[V:2] z2B4AG | 
[V:3] z8 | 
[V:4] _E,3D,B,,2C,2 | 
[V:1] D4E4 | 
[V:2] F2G4A2 | 
[V:3] z8 | 
[V:4] D,2G,,4C,2 | 
[V:1] D2D4B,2 | 
[V:2] D2B4AG | 
[V:3] z8 | 
[V:4] B,,2G,,2D,4 | 
[V:1] [M:2/1](3:2:4A,4G,2B,4C2 | 
[V:2] F3DG3A | 
[V:3] z8 | 
[V:4] z4_E,3C, | 
[V:1] (3D2E2F2-(3F2D2E2- | 
[V:2] B2A2F2G2- | 
[V:3] z8 | 
[V:4] B,,2C,2D,2G,,2 | 
[V:1] (3:2:4E DD4B,2C2(3:2:1B, | 
[V:2] GFD2E4 | 
[V:3] z8 | 
[V:4] D,4z2A,,2 | 
[V:1] D8 ||  
[V:2] D8 ||  
[V:3] z8 ||  
[V:4] B,,G,,2F,,D,,4 ||  
[V:1]  [K:F] [K:clef=treble][M:2/1]D8 | 
[V:2]  [K:F] [K:clef=treble-8][M:2/1]A8 | 
[V:3]  [K:F] [K:clef=treble-8][M:2/1]D8 | 
[V:4]  [K:F] [K:clef=bass][M:2/1]z8 | 
[V:1] F4F4 | 
[V:2] B4A4 | 
[V:3] D4D4 | 
[V:4] z8 | 
[V:1] G4E4 | 
[V:2] c4c4 | 
[V:3] E4E4 | 
[V:4] z8 | 
[V:1] F4G4 | 
[V:2] d4B4 | 
[V:3] D4G4 | 
[V:4] z8 | 
[V:1] A4A4 | 
[V:2] A4c4 | 
[V:3] F4F4 | 
[V:4] z4A,,4 | 
[V:1] B6B2 | 
[V:2] d6d2 | 
[V:3] z2G4G2 | 
[V:4] G,,6G,,2 | 
[V:1] B4B4 | 
[V:2] d2d2d3B | 
[V:3] G4G4 | 
[V:4] G,,4G,,4 | 
[V:1] A2G3FF2 | 
[V:2] c2B4A2 | 
[V:3] F2G4D2- | 
[V:4] A,,2B,,2C,2D,2- | 
[V:1] z2F2G2F2 | 
[V:2] d4c2d2- | 
[V:3] D2A2G2A2 | 
[V:4] D,2D,2_E,2D,2 | 
[V:1] G2E2F4 | 
[V:2] d2d2d3B | 
[V:3] B2B2A4 | 
[V:4] B,,2G,,2D,4- | 
[V:1] z4F4 | 
[V:2] A2B2A2d2- | 
[V:3] F3GA2B2- | 
[V:4] D,4D,4 | 
[V:1] F4F4 | 
[V:2] d4B3A | 
[V:3] B2AGF4 | 
[V:4] D,4D,4 | 
[V:1] G2A3GG2- | 
[V:2] c4d4 | 
[V:3] z2E2F2D2 | 
[V:4] C,4B,,4 | 
[V:1] GFE2D2E2- | 
[V:2] _e2c2B4- | 
[V:3] C2E3FG2- | 
[V:4] C,4G,,4 | 
[V:1] EDD3B,C/B,/A,/G,/ | 
[V:2] B2A2G4 | 
[V:3] GFD2E4 | 
[V:4] z8 | 
[V:1] F,4z4 | 
[V:2] z2d4d2 | 
[V:3] D4z4 | 
[V:4] z2B,,4B,,2 | 
[V:1] z8 | 
[V:2] e2e2d2d2 | 
[V:3] z8 | 
[V:4] C,2C,2D,4 | 
[V:1] z8 | 
[V:2] c2d2B2A2 | 
[V:3] z8 | 
[V:4] z2D,4C,2 | 
[V:1] z8 | 
[V:2] A2G2A4 | 
[V:3] z8 | 
[V:4] D,2B,,2A,,2A,,2 | 
[V:1] z8 | 
[V:2] F4B2A2- | 
[V:3] z8 | 
[V:4] A,,2D,4C,2- | 
[V:1] z8 | 
[V:2] AGG4^F2 | 
[V:3] z8 | 
[V:4] C,B,,G,,2A,,4 | 
[V:1] z4D4- | 
[V:2] G4B4- | 
[V:3] z4G4- | 
[V:4] G,,4G,,4- | 
[V:1] D4D4 | 
[V:2] B4B4 | 
[V:3] G4G4 | 
[V:4] G,,4G,,4 | 
[V:1] D4D4 | 
[V:2] B4B4 | 
[V:3] G4G4 | 
[V:4] G,,4G,,4 | 
[V:1] D4D4 | 
[V:2] B4B2G2 | 
[V:3] F4D2G2- | 
[V:4] B,,4B,,4 | 
[V:1] C4B,2D2- | 
[V:2] A4B4 | 
[V:3] GE^F2G4 | 
[V:4] A,,4G,,4 | 
[V:1] D2E2F2_E2- | 
[V:2] B4A2G2 | 
[V:3] F2G2F2G2- | 
[V:4] B,,3C,D,2_E,2- | 
[V:1] E2D3CCB, | 
[V:2] B4A4 | 
[V:3] G2F2E2DC | 
[V:4] E,2B,,2C,4 | 
[V:1] D4z4 | 
[V:2] G4z4 | 
[V:3] B,4F4 | 
[V:4] G,,4F,,2B,,2- | 
[V:1] z8 | 
[V:2] z8 | 
[V:3] G4E4 | 
[V:4] B,,C,D,4^C,2 | 
[V:1] z4F4 | 
[V:2] A4A2B2- | 
[V:3] D4z4 | 
[V:4] D,4z4 | 
[V:1] G2D2E4 | 
[V:2] Bcd4^c2 | 
[V:3] z8 | 
[V:4] z8 | 
[V:1] F4A4 | 
[V:2] d4d3c | 
[V:3] z4A4 | 
[V:4] z4F,4 | 
[V:1] B8 | 
[V:2] e8 | 
[V:3] G4G4- | 
[V:4] E,8 | 
[V:1] B4A4 | 
[V:2] e3dd4 | 
[V:3] G4F4 | 
[V:4] G,4D,4 | 
[V:1] G6E2 | 
[V:2] B2c4B2 | 
[V:3] G8 | 
[V:4] E,8 | 
[V:1] F8 | 
[V:2] d8 | 
[V:3] A8 | 
[V:4] D,8 | 
[V:1] F4F4 | 
[V:2] d4d4 | 
[V:3] D4D4 | 
[V:4] z8 | 
[V:1] F4A4 | 
[V:2] d6cB | 
[V:3] D4F4 | 
[V:4] z8 | 
[V:1] A4G4 | 
[V:2] A4B3G | 
[V:3] F4E4 | 
[V:4] z8 | 
[V:1] F2G4FE | 
[V:2] A2c4A2 | 
[V:3] D2C2E2F2 | 
[V:4] z8 | 
[V:1] D4D4 | 
[V:2] B4A2B2 | 
[V:3] G4z4 | 
[V:4] G,,4F,,2G,,2 | 
[V:1] D2D2D2D2- | 
[V:2] A2B4G2 | 
[V:3] D4G4 | 
[V:4] F,,2G,,4B,,2 | 
[V:1] DCC2B,2D2- | 
[V:2] A4D4 | 
[V:3] F2F2G2B2- | 
[V:4] A,,4G,,4 | 
[V:1] D2C2B,4 | 
[V:2] z4D4 | 
[V:3] B2A2G4 | 
[V:4] F,,4G,,4 | 
[V:1] A,4z4 | 
[V:2] D3EF2G2- | 
[V:3] F4D2D2- | 
[V:4] D,6B,,2 | 
[V:1] A,4B,4 | 
[V:2] G2F2G4 | 
[V:3] D2C2D2E2 | 
[V:4] A,,4G,,4 | 
[V:1] A,2D2E2F2- | 
[V:2] A3FG2B2- | 
[V:3] F4z2F2- | 
[V:4] D,4C,2B,,2 | 
[V:1] F4E2G2- | 
[V:2] BAF2G2B2 | 
[V:3] FGA2B4 | 
[V:4] D,4G,,4 | 
[V:1] GFF4E2 | 
[V:2] c2d2B4 | 
[V:3] A2F2G4 | 
[V:4] z2B,,4C,2 | 
[V:1] F4F4 | 
[V:2] z2A4F2 | 
[V:3] F4z2B2 | 
[V:4] D,4A,,2B,,2- | 
[V:1] F2F2F2F2 | 
[V:2] B2c2d4 | 
[V:3] B2A2B3A | 
[V:4] B,,A,,F,,2B,,4 | 
[V:1] F2F2E2F2- | 
[V:2] c2B2G2F2- | 
[V:3] F4z2B,2- | 
[V:4] A,,2B,,2C,2D,2- | 
[V:1] F2E2D4 | 
[V:2] FDE2F2G2 | 
[V:3] B,2C2D4 | 
[V:4] D,2C,2B,,4 | 
[V:1] C4z4 | 
[V:2] A4B4 | 
[V:3] E2F4G2 | 
[V:4] A,,2F,,2B,,4 | 
[V:1] F4F4- | 
[V:2] c4d4- | 
[V:3] A8 | 
[V:4] A,,4D,4 | 
[V:1] F2F2F4 | 
[V:2] d2d2B2A2 | 
[V:3] D8 | 
[V:4] z8 | 
[V:1] F4G4 | 
[V:2] d4e4 | 
[V:3] z8 | 
[V:4] z8 | 
[V:1] F2D2E3D | 
[V:2] d2B2c4 | 
[V:3] z8 | 
[V:4] z8 | 
[V:1] F4G2A2- | 
[V:2] B2A2B2c2 | 
[V:3] z8 | 
[V:4] z8 | 
[V:1] AGG4^F2 | 
[V:2] G4A4 | 
[V:3] z8 | 
[V:4] z8 | 
[V:1] G4z4 | 
[V:2] G8 | 
[V:3] z8 | 
[V:4] z8 | 
[V:1] D4E4 | 
[V:2] B4c4 | 
[V:3] z8 | 
[V:4] z8 | 
[V:1] F4F4 | 
[V:2] d2B2A4 | 
[V:3] z4D4 | 
[V:4] z8 | 
[V:1] G4F2D2- | 
[V:2] z8 | 
[V:3] E4F4 | 
[V:4] z8 | 
[V:1] D2CD_E3D | 
[V:2] z8 | 
[V:3] F4G4- | 
[V:4] z8 | 
[V:1] B,4z2D2- | 
[V:2] z4G4 | 
[V:3] G2F2D4 | 
[V:4] z4B,,3A,, | 
[V:1] DCC2D2E2- | 
[V:2] A4B3G | 
[V:3] F2E2G4 | 
[V:4] A,,4G,,4 | 
[V:1] EDD2B,2C2- | 
[V:2] A2B4A2- | 
[V:3] E2F2G2F2- | 
[V:4] C,2B,,2G,,2A,,2- | 
[V:1] CB,G,2A,4 | 
[V:2] A2G2E3F | 
[V:3] FED2E4 | 
[V:4] A,,2B,,2C,4 | 
[V:1] B,4z4 | 
[V:2] G4z4 | 
[V:3] D4z4 | 
[V:4] G,,4z4 | 
[V:1] B,4B,4 | 
[V:2] z8 | 
[V:3] G3FD4 | 
[V:4] z8 | 
[V:1] C6B,A, | 
[V:2] z8 | 
[V:3] C2E4F2 | 
[V:4] z8 | 
[V:1] B,4z4 | 
[V:2] z8 | 
[V:3] G4z4 | 
[V:4] z8 | 
[V:1] D4D4 | 
[V:2] G3AB4 | 
[V:3] z8 | 
[V:4] z8 | 
[V:1] _E4D2B,2 | 
[V:2] c4B2B2- | 
[V:3] z8 | 
[V:4] z8 | 
[V:1] C4D4 | 
[V:2] B2A2B4 | 
[V:3] z8 | 
[V:4] z8 | 
[V:1] C4D2E2- | 
[V:2] A4B4- | 
[V:3] F2E2G3F | 
[V:4] A,,4G,,4 | 
[V:1] EDD2C2B,A, | 
[V:2] B2G2A2G2 | 
[V:3] D4E4- | 
[V:4] B,,4A,,2C,2- | 
[V:1] G,4A,4 | 
[V:2] C2G4^F2 | 
[V:3] E2D2E2F2 | 
[V:4] C,B,,G,,2C,2D,2 | 
[V:1] G,4z4 | 
[V:2] G4z4 | 
[V:3] D4z4 | 
[V:4] G,,4z4 | 
[V:1] [M:3/1]D6E2F4 | 
[V:2] [M:3/1]B6c2d4 | 
[V:3] [M:3/1]z12 | 
[V:4] [M:3/1]z12 | 
[V:1] G4A6GF | 
[V:2] _e4d3cA4 | 
[V:3] z12 | 
[V:4] z12 | 
[V:1] F4z4F4 | 
[V:2] d4z4d4 | 
[V:3] D8D4 | 
[V:4] z12 | 
[V:1] G4A8 | 
[V:2] B4d3cA4 | 
[V:3] E4F6EF | 
[V:4] z12 | 
[V:1] B4A2F2G4 | 
[V:2] G2B2c2d4c2 | 
[V:3] G4F2D2E4 | 
[V:4] z12 | 
[V:1] F2B3AA4G2 | 
[V:2] d2d2c2A2B4 | 
[V:3] D4F4E4 | 
[V:4] z12 | 
[V:1] A3FF4z4 | 
[V:2] A4d8 | 
[V:3] z2F4D2D4 | 
[V:4] z12 | 
[V:1] G6F2E4 | 
[V:2] d6c2A4 | 
[V:3] D8E4 | 
[V:4] G,,6A,,2C,4 | 
[V:1] D4E2D2G4 | 
[V:2] B4A2B3cd2- | 
[V:3] F4E2F2G3F | 
[V:4] B,,4C,2B,,2G,,4 | 
[V:1] F4G2A3GG2 | 
[V:2] dcA2B2c3de2 | 
[V:3] D6C2E4 | 
[V:4] z2D,2B,,2A,,2C,4 | 
[V:1] F2B3AF2E2G2 | 
[V:2] d4z2D2E2D2 | 
[V:3] F2G2F2A3GB2 | 
[V:4] D,2G,,2D,4C,2B,,2 | 
[V:1] F2E3DD4^C2 | 
[V:2] F2B2c2B4A2 | 
[V:3] A2G3FD2E3C | 
[V:4] D,2G,,2C,2D,B,,2G,,A,,2 | 
[V:1] D12 |]  
[V:2] D12 |]  
[V:3] B,2A,2B,4A,4 |]  
[V:4] G,,2F,,2G,,4D,,4 & x8D,4 |]  



